!!!OTL: De klenge Mennchen, S. 27
!!!id: L0020
**kern
*clefG2
*k[b-]
*F:
{8c
=1
8f
8g
8a
8b-
=2
4cc
8cc}
=3
{8cc
=4
8dd
8dd
8ff
8dd
=5
4cc}
8r
=6
{8cc
=7
8cc
8b-
8b-
8b-
=8
4a
8a}
=9
{8a
=10
8g
8g
8g
8g
=11
4f}
8r
==
*-
!!!minrhy: 8
!!!meters: 2/4 ]  ZZ[4
!!!cut: De klenge Mennchen, S. 27
!!!reg: Luxemburg
!!!trd: Die Luxemburger Volkslieder &auml;lterer Zeit, Luxemburg 1904 posth.
!!!rhy1: X  XXXX  X_X
!!!rhy2: X  XXXX  X_0
!!!key: L0020  08  F 2/4 ]  ZZ[4
!!!mod: SECHSTONSKALA DUR ?]  AMBITUS[11
!!!kad: 5531
!!!akz: 15_65_53_21_
!!!fot: 'a__b__c__d__
!!!for: 'a__a__a__a__
!!!fok: '/__^__\__\__
!! PHRAS[AUFTAKTIG]
!!!fkt: ??, Liebeslied, Tanzlied
!!!RNB: symbol: &auml;      = a umlaut  (UTF-8: ń)
